src/pos-icons/mother-heart.svg

<svg height="24" viewBox="0 0 24 24" width="24" xmlns="http://www.w3.org/2000/svg"><path d="m12 2c1.66 0 3 1.34 3 3s-1.34 3-3 3-3-1.34-3-3 1.34-3 3-3m8 16-2-5.44c-.35-.99-.66-1.85-2-2.56-1.37-.7-2.37-1-4-1-1.61 0-2.61.3-4 1-1.32.71-1.63 1.57-2 2.56l-2 5.44c-.23 1.13 2.38 2.44 4.13 3.19 1.21.53 2.51.81 3.87.81 1.38 0 2.67-.28 3.89-.81 1.75-.75 4.36-2.06 4.11-3.19m-4.58-.5-3.42 3.5-3.42-3.5c-.36-.38-.58-.89-.58-1.45 0-1.13.9-2.05 2-2.05.55 0 1.06.23 1.42.61l.58.59.58-.6c.36-.37.87-.6 1.42-.6 1.11 0 2 .92 2 2.05 0 .56-.22 1.08-.58 1.45z"/></svg>

<?xml version="1.0" encoding="UTF-8"?><!DOCTYPE svg PUBLIC "-//W3C//DTD SVG 1.1//EN" "http://www.w3.org/Graphics/SVG/1.1/DTD/svg11.dtd"><svg xmlns="http://www.w3.org/2000/svg" xmlns:xlink="http://www.w3.org/1999/xlink" version="1.1" id="mdi-mother-heart" width="24" height="24" viewBox="0 0 24 24"><path d="M12 2C13.66 2 15 3.34 15 5S13.66 8 12 8 9 6.66 9 5 10.34 2 12 2M20 18L18 12.56C17.65 11.57 17.34 10.71 16 10C14.63 9.3 13.63 9 12 9C10.39 9 9.39 9.3 8 10C6.68 10.71 6.37 11.57 6 12.56L4 18C3.77 19.13 6.38 20.44 8.13 21.19C9.34 21.72 10.64 22 12 22C13.38 22 14.67 21.72 15.89 21.19C17.64 20.44 20.25 19.13 20 18M15.42 17.5L12 21L8.58 17.5C8.22 17.12 8 16.61 8 16.05C8 14.92 8.9 14 10 14C10.55 14 11.06 14.23 11.42 14.61L12 15.2L12.58 14.6C12.94 14.23 13.45 14 14 14C15.11 14 16 14.92 16 16.05C16 16.61 15.78 17.13 15.42 17.5Z" /></svg>
